X: 17039
T: Hearty Boys Of Ballymote, The
R: jig
M: 6/8
K: Edorian
|:F|GEE B,EE|FEF DFA|GEE B,EE|FED E2 F|
GEE B,EE|FEF DFA|Bec d2 B|AFD E2:|
|:c|d2 d dcB|AFD DFA|Bee ede|fdB B2 A|
dce dcB|AFD DFA|Bec d2 B|AFD E2:|

